X:1
T:Non so chi mi fa
T:Non so chi mi
T:Piero Benedetti
T:Source : Musische di Piero Benedetti---Fiorenza---Heredes di C.Marescotti---1611. Editor : André Vierendeels (24/05/15).
T:PRIMA PARTE
T:Notes : Original clefs : C1, F4 Figures in BC are notated in original print
C:Piero Benedetti
%%score 1 2
L:1/8
Q:1/4=76
M:4/4
K:F
V:1 treble nm="Soprano" snm="S"
V:2 bass nm="BC" snm="BC"
V:1
 z2 d2 B4 | z A B d/4c/4B/4A/4 B4 | B4 z B _e2- | ec c4 c2 | z2 z c G4 | z GGA B4 | z dBG A4 | G8 | %8
w: Non so|chi mi sa- * * * et-|ti o pun-|* ga'il co- re,|non so|chi mi fa tuo|gen- til Pa- sto-|re,|
 z2 E4 E2 | z AFE F4 | F2 c4 G2 | z cd_e d2 c2 | z AAA A4 | A4 d2 AA | c4- cBBB | B3 E E4 | D8 |: %17
w: Fer- ma,|deh fer- ma'il pie-|de, mi- ra|la tua bel- lez- za|è la mia fe-|de, men- tre mi|strug- * ge'i mi con-|sum' a- mo-|re.|
 z2 d2 =BBcA | =B3 B d3 G | G>A =B>c A>B A/B/G | A4 c2 A2 | A/=B/A/B/ c/d/c/d/ e2 cA | =B6 ^c2 | %23
w: Per- che ne gl'oc- chi|miei ve- drai te|stes- * * * * * * * *|so, fe- de,|stra- * * * * * * * li, et a-|mor el|
 d<=B c<d e3 A | A8 | G8 :|"^SECONDA PARS" z2 G2 B4 | B2 d^F G4 | B>A G>A B/c/d _e2 | %29
w: fo- * * * co im-|pre-|sto.|Ben mi-|ro gl'oc- chi tuoi|fiam- * * * * * * *|
 _e3 e d3 e/f/ | c4 c4 | z2 z d AABG | A4 F/G/A/F/ G/A/B/G/ | A/B/c/A/ B/c/B/c/ d>e f>e | %34
w: * me del _ _|co- re,|ben mi- ro gl'oc- chi|gio- * * * * * * * *||
 d2 cB A4 | G8 | z2 A4 A2 | z EAE ^F4 | ^F4 z2 AA | d6 cA | B2 B2 z2 d2- | d2 EE E4 | D8 | d6 cA | %44
w: ia d'a- mo- *|re,|ec- co|gia fer- mo'il pie-|de, a mi-|rar le tue|fiam- me, o|_ la tua fe-|de,|O mio fe-|
 B2 G2 z Bcd | _e4- e3 G | G4 A4 |: z AAA B/A/B/c/ dG | A4 A2 c2- | c2 BA G4 | F8 | z FFG A3 F | %52
w: li- ce O mio so-|a- * ve'ar-|do- re,|che nel- le fiam- * * * * me'al-|tru- i ar-|* da me- ste|flo,|e fi- do'a- man- te|
 G4 d4- | d2 AA A4 | G8 | d6 cA | B2 G2 z Bcd | _e4- e3 G |1 G4 A4 :|2 G4 d4- || d2 AA A3 A/G/ | %61
w: poi la-|_ vi- va'im- pres-|so,|O- mio fe-|li- ce O mio so-|a- * ve'ar-|do- re|poi la|_ vi- va'im- pres- * *|
 ^F/G/E/F/ D/E/F/G/ A/B/c/A/ B/c/B/c/ | d/G/A/B/ A/B/c/B/ A4 | G8 |] %64
w: ||so.|
V:2
 G,,8 | G,,8 | G,4 G,4 | _E,4 F,4 | C,8 | C,4 G,,4 |"^4" G,,4 D,2 D,2 |"^#""^-natural" G,,8 | %8
 A,,8 | A,,4 F,,4 | F,,4 C,4 |"^b" C,8 |"^#" C,4 D,4 |"^#" D,8 | E,4 F,4 | %15
"^4""^#" ^F,,2 G,,2 A,,2 A,,2 |"^#" D,8 |: G,,8 | G,8 |"^6#" E,6 E,2 |"^#" D,4 A,,4 | A,,8 | %22
"^#" E,8 |"^#" D,6 ^C,2 |"^4""^#" D,4 D,4 | G,,8 :| G,,8 | G,,8 | _E,8 |"^4" F,4 F,4 | F,8 | %31
"^#" D,6 G,,2 |"^#" D,4 F,4- | F,2 G,2 B,2 B,,2- |"^4""^#" B,,2 C,2 D,2 D,2 |"^-natural" G,,8 | %36
"^#" A,,8 |"^#""^#" A,,4 D,4 |"^#" D,8 |"^#" D,4 ^F,4 | G,8 |"^4""^#" G,,4 A,,2 A,,2 |"^#" D,8 | %43
 B,2 A,F, G,4- | G,4 _E,4 | C,4 G,,4 |"^6""^#" _E,2 E,2 D,4 |:"^#" D,4 G,,4 | D,4 F,2 E,D, | %49
"^3         4                   3" C,2 C,4 C,2 | F,,8 | F,,8 | C,4 G,,4 |"^4""^#" C,4 D,2 D,2 | %54
"^-natural" G,,8 | B,2 A,F, G,4 | G,4 _E,4 | C,4 G,,4 |1"^6""^#" _E,2 E,2 D,4 :|2 C,4 G,,4 || %60
"^4""^#" C,4 D,2 D,2 |"^#" D,8 |"^4""^#" D,4 D,2 D,2 |"^-natural" G,,8 |] %64

